X:18
T:Gubbstt
T:efter Pelle Fors
R:Gubbstt
O:Vikbolandet, \~nstergtland
S:efter Pelle Fors
B:Ltar efter Pelle Fors
Z:Bjrn Ek 2009-01-01
N:Nr 18 i Ltar efter Pelle Fors
N:Avslutningen av frsta reprisen r "rttad" d den r uppenbart fel i den tryckta utgvan. 
M:3/4
L:1/8
K:D
%
|:FA dc BA|GF (E/F/E/D/) E2|ef gf ed           |dc ec A2            |
FA dc BA  |GF E2 c2        |1((5c/d/c/B/c/) d4:|2((5c/d/c/B/c/) d3 A||
%
{/e}dc df ag|ed ef ge|ed dc ec|A4 A2        |
{/e}dc df ag|ed ef ga|b2 a2 ce|(d/e/d/c/) d4|]
%
